svgs/sharp-regular/uniform-martial-arts.svg

<svg xmlns="http://www.w3.org/2000/svg" viewBox="0 0 640 512"><!--! Font Awesome Pro 6.6.0 by @fontawesome - https://fontawesome.com License - https://fontawesome.com/license (Commercial License) Copyright 2024 Fonticons, Inc. --><path d="M117.4 0l14.2 0L240 0l14.6 0 6.7 13L320 127.1 378.7 13l6.7-13L400 0 508.4 0l14.2 0 6.8 12.4L637 208.1l3 5.4 0 6.2L640 424l0 24-24 0-96 0-24 0 0-24 0-173.5-16-29.1 0 66.6-48 0 0-160 45-11.6 64 116.4 3 5.4 0 6.2L544 400l48 0 0-174.2L494.2 48l-79.5 0L341.3 190.5 291.2 288l-54 0L293 179.6 225.4 48l-79.5 0L48 225.8 48 400l48 0 0-155.7 0-6.2 3-5.4 64-116.4L208 128l0 160-48 0 0-66.6-16 29.1L144 424l0 24-24 0-96 0L0 448l0-24L0 219.7l0-6.2 3-5.4L110.6 12.4 117.4 0zM432 384l48 0 0 104 0 24-24 0-272 0-24 0 0-24 0-104 48 0 0 80 224 0 0-80zM176 320l144 0 144 0 16 0 0 32-16 0-114.1 0 47.4 71.1-26.6 17.8-50.7-76-50.7 76-26.6-17.8L290.1 352 176 352l-16 0 0-32 16 0z"/></svg>

<svg xmlns="http://www.w3.org/2000/svg" viewBox="0 0 640 512"><!--! Font Awesome Pro 6.5.2 by @fontawesome - https://fontawesome.com License - https://fontawesome.com/license (Commercial License) Copyright 2024 Fonticons, Inc. --><path d="M117.4 0h14.2H240h14.6l6.7 13L320 127.1 378.7 13l6.7-13H400 508.4h14.2l6.8 12.4L637 208.1l3 5.4v6.2V424v24H616 520 496V424 250.5l-16-29.1V288H432V128l45-11.6 64 116.4 3 5.4v6.2V400h48V225.8L494.2 48H414.6L341.3 190.5 291.2 288h-54L293 179.6 225.4 48H145.8L48 225.8V400H96V244.3v-6.2l3-5.4 64-116.4L208 128V288H160V221.4l-16 29.1V424v24H120 24 0V424 219.7v-6.2l3-5.4L110.6 12.4 117.4 0zM432 384h48V488v24H456 184 160V488 384h48v80H432V384zM176 320H320 464h16v32H464 349.9l47.4 71.1-26.6 17.8-50.7-76-50.7 76-26.6-17.8L290.1 352H176 160V320h16z"/></svg>
